src/apps/symbolic/org.gnome.Settings-multitasking-symbolic.svg

<svg width="16px" height="16px" version="1.1">
 <path d="m4 1c-0.554 0-1 0.446-1 1v1h-2c-0.554 0-1 0.446-1 1v8c0 0.554 0.446 1 1 1h2v1c0 0.554 0.446 1 1 1h8c0.554 0 1-0.446 1-1v-1h2c0.554 0 1-0.446 1-1v-8c0-0.554-0.446-1-1-1h-2v-1c0-0.554-0.446-1-1-1h-8zm0 1h8v12h-8v-12zm-3 2h2v8h-2v-8zm12 0h2v8h-2v-8z" fill="#363636"/>
</svg>

<svg width="16" height="16">
    <path fill="#050505" fill-opacity=".7" d="M4 1c-.554 0-1 .446-1 1v1H1c-.554 0-1 .446-1 1v8c0 .554.446 1 1 1h2v1c0 .554.446 1 1 1h8c.554 0 1-.446 1-1v-1h2c.554 0 1-.446 1-1V4c0-.554-.446-1-1-1h-2V2c0-.554-.446-1-1-1H4zm0 1h8v12H4V2zM1 4h2v8H1V4zm12 0h2v8h-2V4z"/>
</svg>
